assets/img/check.svg

<svg width="38" height="38" viewBox="0 0 38 38" fill="none" xmlns="http://www.w3.org/2000/svg">
<path d="M7.28041 37.0913H30.7198C34.9151 37.0913 37.0718 34.9345 37.0718 30.8027V7.2363C37.0718 3.101 34.9151 0.947754 30.7198 0.947754H7.28041C3.10095 0.947754 0.928345 3.08512 0.928345 7.2363V30.8027C0.928345 34.9505 3.10095 37.0913 7.28041 37.0913Z" fill="#E53057"/>
<path d="M16.8929 28.5534C16.1613 28.5534 15.5634 28.2371 15.0251 27.5348L10.2763 21.7626C9.93357 21.3196 9.75232 20.8727 9.75232 20.3819C9.75232 19.3956 10.5381 18.5955 11.5369 18.5955C12.1348 18.5955 12.5957 18.8011 13.0972 19.44L16.8259 24.1789L24.8328 11.3588C25.2564 10.6978 25.8052 10.3496 26.4118 10.3496C27.3629 10.3496 28.2543 11.0281 28.2543 12.0428C28.2543 12.4897 28.0324 12.9629 27.7493 13.4079L18.6868 27.521C18.2452 28.1983 17.614 28.5534 16.8929 28.5534Z" fill="white"/>
</svg>

<svg xmlns="http://www.w3.org/2000/svg" width="38" height="38" fill="none"><path fill="#E53057" d="M7.28 37.091h23.44c4.195 0 6.352-2.157 6.352-6.288V7.236c0-4.135-2.157-6.288-6.352-6.288H7.28C3.1.948.928 3.085.928 7.236v23.567c0 4.147 2.173 6.288 6.352 6.288Z"/><path fill="#fff" d="M16.893 28.553c-.732 0-1.33-.316-1.868-1.018l-4.749-5.772c-.342-.443-.524-.89-.524-1.381 0-.986.786-1.787 1.785-1.787.598 0 1.059.206 1.56.845l3.729 4.739 8.007-12.82c.423-.661.972-1.01 1.579-1.01.95 0 1.842.68 1.842 1.694 0 .447-.222.92-.505 1.365L18.687 27.52c-.442.677-1.073 1.032-1.794 1.032Z"/></svg>
